icons/open_folder_icon_dark.svg

<svg xmlns="http://www.w3.org/2000/svg" xmlns:xlink="http://www.w3.org/1999/xlink" version="1.2" baseProfile="tiny" x="0px" y="0px" viewBox="0 0 100 125" xml:space="preserve"><path d="M92.5,35h-10v-7.5c0-1.381-1.119-2.5-2.5-2.5H51.035l-9.268-9.268C41.299,15.264,40.663,15,40,15H10   c-1.381,0-2.5,1.119-2.5,2.5v65c0,1.346,1.151,2.5,2.5,2.5h70c1.102,0,2.115-0.772,2.409-1.831l12.5-45   c0.209-0.753,0.054-1.56-0.419-2.182S93.281,35,92.5,35z M12.5,20h26.465l9.268,9.268C48.701,29.736,49.337,30,50,30h27.5v5h-55   c-1.123,0-2.108,0.749-2.409,1.831L12.5,64.158V20z M78.1,80h-0.6H13.289L24.4,40h64.811L78.1,80z"/></svg>

<svg version="1.2" xmlns="http://www.w3.org/2000/svg" viewBox="0 0 100 125" width="100" height="125">
	<title>open_folder_icon_dark</title>
	<defs>
		<clipPath clipPathUnits="userSpaceOnUse" id="cp1">
			<path d="m92.5 35h-10v-7.5c0-1.38-1.12-2.5-2.5-2.5h-28.97l-9.26-9.27c-0.47-0.47-1.11-0.73-1.77-0.73h-30c-1.38 0-2.5 1.12-2.5 2.5v65c0 1.35 1.15 2.5 2.5 2.5h70c1.1 0 2.11-0.77 2.41-1.83l12.5-45c0.21-0.75 0.05-1.56-0.42-2.18-0.47-0.63-1.21-0.99-1.99-0.99zm-80-15h26.47l9.26 9.27c0.47 0.47 1.11 0.73 1.77 0.73h27.5v5h-55c-1.12 0-2.11 0.75-2.41 1.83l-7.59 27.33zm65.6 60h-0.6-64.21l11.11-40h64.81z"/>
		</clipPath>
		<image  width="100" height="125" id="img1" href="data:image/png;base64,iVBORw0KGgoAAAANSUhEUgAAAGQAAAB9AQMAAABu9VREAAAAAXNSR0IB2cksfwAAAANQTFRF////p8QbyAAAABpJREFUeJxjZEAGjKO8Ud4ob5Q3yhvlDWEeALWPAH7DtpnVAAAAAElFTkSuQmCC"/>
	</defs>
	<style>
		.s0 { fill: #000000 } 
	</style>
	<g clip-path="url(#cp1)">
		<path class="s0" d="m92.5 35h-10v-7.5c0-1.4-1.1-2.5-2.5-2.5h-29l-9.2-9.3c-0.5-0.4-1.1-0.7-1.8-0.7h-30c-1.4 0-2.5 1.1-2.5 2.5v65c0 1.3 1.2 2.5 2.5 2.5h70c1.1 0 2.1-0.8 2.4-1.8l12.5-45c0.2-0.8 0.1-1.6-0.4-2.2-0.5-0.6-1.2-1-2-1zm-80-15h26.5l9.2 9.3c0.5 0.4 1.1 0.7 1.8 0.7h27.5v5h-55c-1.1 0-2.1 0.7-2.4 1.8l-7.6 27.4zm65.6 60h-0.6-64.2l11.1-40h64.8z"/>
		<use id="Layer 1" href="#img1" x="0" y="0"/>
	</g>
</svg>
